packages/core/src/browser/icons/arrow-up-dark.svg

<svg fill="none" height="16" viewBox="0 0 16 16" width="16" xmlns="http://www.w3.org/2000/svg"><path clip-rule="evenodd" d="m13.8535 6.2929-4.99994-4.99999h-.70711l-5 4.99999.70711.70711 4.14644-4.14644v12.20713h1v-12.20713l4.1464 4.14644z" fill="#c5c5c5" fill-rule="evenodd"/></svg>

<!--Copyright (c) Microsoft Corporation. All rights reserved.-->
<!--Copyright (C) 2020 RedHat and others.-->
<!--Licensed under the MIT License. See License.txt in the project root for license information.-->
<svg width="16" height="16" viewBox="0 0 16 16" fill="none" xmlns="http://www.w3.org/2000/svg">
<path fill-rule="evenodd" clip-rule="evenodd" d="M13.8535 6.2929L8.85356 1.29291H8.14645L3.14645 6.2929L3.85356 7.00001L8 2.85357V15.0607H9V2.85357L13.1464 7.00001L13.8535 6.2929Z" fill="#C5C5C5"/>
</svg>
